X: 1
T: Verkaa
T: Baize
O: Karjala, Finland
S: handwritten copy of unknown origin.
Z: 2013 John Chambers <jc:trillian.mit.edu>
M: 3/4
L: 1/8
K: G
[| "D7"a2 d2 ef | "G"g2 g4 | "D7"a2 d2 ef | "G"g2 g4 ||
|: "C"aa c'2 c'2 | "Em"aa b2 b2 | "D"aa d2 ef |1 "Em"g2 g4 :|2 "G"g2 g4 |]
